assets/icons/uE014-rules.svg

<svg xmlns="http://www.w3.org/2000/svg" width="896" height="1232" viewBox="0 0 896 1232"><path d="M896 112v784q0 23-16.5 39.5T840 952H56q-23 0-39.5-16.5T0 896V112q0-23 16.5-39.5T56 56h784q23 0 39.5 16.5T896 112zm-56 784V364H308v532h532zm0-588V112H56v784h196v-56H140v-28h112v-56h-56v-28h56v-56H140v-28h112v-56h-56v-28h56v-56H140v-28h112v-56h-56v-28h56v-56H140v-28h112V196h28v112h56v-56h28v56h56V196h28v112h56v-56h28v56h56V196h28v112h56v-56h28v56h56V196h28v112h56z"/></svg>

<?xml version="1.0" encoding="UTF-8" standalone="no"?><svg   xmlns:svg="http://www.w3.org/2000/svg"   xmlns="http://www.w3.org/2000/svg"   version="1.1"   width="896"   height="1232"   viewBox="0 0 896 1232">  <path     d="M896 112V896Q896 919 879.5 935.5T840 952H56Q33 952 16.5 935.5T0 896V112Q0 89 16.5 72.5T56 56H840Q863 56 879.5 72.5T896 112zM840 896V364H308V896H840zM840 308V112H56V896H252V840H140V812H252V756H196V728H252V672H140V644H252V588H196V560H252V504H140V476H252V420H196V392H252V336H140V308H252V196H280V308H336V252H364V308H420V196H448V308H504V252H532V308H588V196H616V308H672V252H700V308H756V196H784V308H840z"     id="icon394" /></svg>
